veiligh_ruimtelijk_type/1010.svg

<?xml version="1.0" encoding="utf-8"?>
<!-- Generator: Adobe Illustrator 24.1.0, SVG Export Plug-In . SVG Version: 6.00 Build 0)  -->
<svg version="1.1"
	 id="svg82" xmlns:cc="http://creativecommons.org/ns#" xmlns:dc="http://purl.org/dc/elements/1.1/" xmlns:inkscape="http://www.inkscape.org/namespaces/inkscape" xmlns:rdf="http://www.w3.org/1999/02/22-rdf-syntax-ns#" xmlns:sodipodi="http://sodipodi.sourceforge.net/DTD/sodipodi-0.dtd" xmlns:svg="http://www.w3.org/2000/svg"
	 xmlns="http://www.w3.org/2000/svg" xmlns:xlink="http://www.w3.org/1999/xlink" x="0px" y="0px" viewBox="0 0 21 20.8"
	 style="enable-background:new 0 0 21 20.8;" xml:space="preserve">
<style type="text/css">
	.st0{fill:#8CFFFB;enable-background:new    ;}
	.st1{fill:#00A8F3;enable-background:new    ;}
	.st2{enable-background:new    ;}
	.st3{fill:#F6E93F;}
	.st4{fill:#3F48CC;enable-background:new    ;}
	.st5{fill:#FAEA21;stroke:#1D1D1B;stroke-width:0.2;stroke-miterlimit:10;enable-background:new    ;}
	.st6{fill:#EC1C24;}
</style>
<rect class="st0" width="20.9" height="20.8"/>
<rect x="19.5" y="14.6" class="st1" width="1.4" height="6.2"/>
<g class="st2">
	<rect x="20.4" y="16.4" class="st3" width="0.2" height="2.4"/>
</g>
<path class="st4" d="M8.3,10.4c-0.3-0.1-6.7,0-6.7,0s0.9,5.5,1.1,6.4s1.7,3.4,2.3,4.1c1.9,0,14.7,0,14.7,0s0.1-0.1,0-0.5
	c0.2-1.4,0.7-4.6,0.5-5.9s-0.4-3.3-0.4-3.3l-7.7,0L8.3,10.4z"/>
<path class="st5" d="M4.6,0.5h5v4.9h1.8l1.8,4.9v0.9H8.9l-1.8-0.9H5.8V6.9c0,0,0-0.8-0.6-2.2C4.4,4.3,4.6,0.5,4.6,0.5z"/>
<g class="st2">
	<path class="st6" d="M7.8,15.8c-0.1,0-0.3-0.1-0.3-0.1l-0.1,0l0-0.1c0,0,0.3-1.6,0.5-2.4C7.9,13,8,12.7,8,12.6c0,0-0.1,0-0.1,0.1
		c-0.3,0.1-0.5,0.7-0.6,0.9l0,0.1H6.2l0.5-2.5c0-0.1,0.5-2.2,1.7-2.2c0.1,0,0.1,0,0.2,0c2.2,0.3,2.3,5.2,2.3,5.7v0.2l-0.2-0.1
		c-0.5-0.2-1.1-0.7-1.4-1.1c-0.3-0.3-0.6-0.4-0.8-0.5C8.4,13.8,8,15.6,8,15.7C8,15.7,7.9,15.8,7.8,15.8z"/>
	<path class="st3" d="M8.4,9.1c0,0,0.1,0,0.1,0c1.9,0.2,2.2,4.3,2.2,5.6c-0.4-0.2-0.9-0.6-1.4-1.1c-0.4-0.5-1-0.6-1-0.6
		s-0.4,2.5-0.5,2.6c0,0-0.1,0.1-0.1,0.1c-0.1,0-0.3-0.1-0.3-0.1S7.8,14,8,13.3c0.1-0.6,0.2-0.8,0-0.8c0,0-0.1,0-0.2,0.1
		c-0.4,0.2-0.6,1-0.6,1H6.3l0.5-2.3C6.8,11.2,7.3,9.1,8.4,9.1 M8.4,8.8c-1.3,0-1.8,2.2-1.8,2.3l-0.5,2.3L6,13.7h0.3h0.9h0.2l0.1-0.2
		c0.1-0.2,0.2-0.6,0.4-0.8c0,0.1-0.1,0.3-0.1,0.4c-0.2,0.8-0.5,2.4-0.5,2.4l0,0.2l0.2,0.1c0,0,0.2,0.1,0.3,0.1
		c0.3,0,0.3-0.2,0.3-0.2c0-0.1,0.3-1.4,0.4-2.4c0.2,0.1,0.4,0.2,0.6,0.4c0.4,0.4,0.9,0.9,1.5,1.1L11,15v-0.4c0-0.6-0.1-5.6-2.4-5.8
		C8.5,8.8,8.4,8.8,8.4,8.8L8.4,8.8z"/>
</g>
</svg>

<?xml version="1.0" encoding="UTF-8" standalone="no"?>
<!-- Generator: Adobe Illustrator 24.1.0, SVG Export Plug-In . SVG Version: 6.00 Build 0)  -->

<svg
   xmlns:dc="http://purl.org/dc/elements/1.1/"
   xmlns:cc="http://creativecommons.org/ns#"
   xmlns:rdf="http://www.w3.org/1999/02/22-rdf-syntax-ns#"
   xmlns:svg="http://www.w3.org/2000/svg"
   xmlns="http://www.w3.org/2000/svg"
   xmlns:sodipodi="http://sodipodi.sourceforge.net/DTD/sodipodi-0.dtd"
   xmlns:inkscape="http://www.inkscape.org/namespaces/inkscape"
   version="1.1"
   id="svg82"
   x="0px"
   y="0px"
   viewBox="0 0 125 125"
   xml:space="preserve"
   sodipodi:docname="1010.svg"
   width="125"
   height="125"
   inkscape:version="0.92.5 (2060ec1f9f, 2020-04-08)"><metadata
   id="metadata1191"><rdf:RDF><cc:Work
       rdf:about=""><dc:format>image/svg+xml</dc:format><dc:type
         rdf:resource="http://purl.org/dc/dcmitype/StillImage" /><dc:title></dc:title></cc:Work></rdf:RDF></metadata><defs
   id="defs1189" /><sodipodi:namedview
   pagecolor="#ffffff"
   bordercolor="#666666"
   borderopacity="1"
   objecttolerance="10"
   gridtolerance="10"
   guidetolerance="10"
   inkscape:pageopacity="0"
   inkscape:pageshadow="2"
   inkscape:window-width="1920"
   inkscape:window-height="1017"
   id="namedview1187"
   showgrid="false"
   inkscape:zoom="5.86"
   inkscape:cx="10.5"
   inkscape:cy="58.18157"
   inkscape:window-x="-8"
   inkscape:window-y="-8"
   inkscape:window-maximized="1"
   inkscape:current-layer="svg82" />
<style
   type="text/css"
   id="style1166">
	.st0{fill:#8CFFFB;enable-background:new    ;}
	.st1{fill:#00A8F3;enable-background:new    ;}
	.st2{enable-background:new    ;}
	.st3{fill:#F6E93F;}
	.st4{fill:#3F48CC;enable-background:new    ;}
	.st5{fill:#FAEA21;stroke:#1D1D1B;stroke-width:0.2;stroke-miterlimit:10;enable-background:new    ;}
	.st6{fill:#EC1C24;}
</style>





<g
   id="g1202"
   transform="matrix(3.1100479,0,0,3.1100479,29.999999,29.999999)"><rect
     id="rect1168"
     height="20.799999"
     width="20.9"
     class="st0"
     x="0"
     y="0"
     style="fill:#8cfffb;enable-background:new" /><rect
     id="rect1170"
     height="6.1999998"
     width="1.4"
     class="st1"
     y="14.6"
     x="19.5"
     style="fill:#00a8f3;enable-background:new" /><g
     id="g1174"
     class="st2"
     style="enable-background:new">
	<rect
   id="rect1172"
   height="2.4000001"
   width="0.2"
   class="st3"
   y="16.4"
   x="20.4"
   style="fill:#f6e93f" />
</g><path
     id="path1176"
     d="m 8.3,10.4 c -0.3,-0.1 -6.7,0 -6.7,0 0,0 0.9,5.5 1.1,6.4 0.2,0.9 1.7,3.4 2.3,4.1 1.9,0 14.7,0 14.7,0 0,0 0.1,-0.1 0,-0.5 0.2,-1.4 0.7,-4.6 0.5,-5.9 -0.2,-1.3 -0.4,-3.3 -0.4,-3.3 h -7.7 z"
     class="st4"
     inkscape:connector-curvature="0"
     style="fill:#3f48cc;enable-background:new" /><path
     id="path1178"
     d="m 4.6,0.5 h 5 v 4.9 h 1.8 l 1.8,4.9 v 0.9 H 8.9 L 7.1,10.3 H 5.8 V 6.9 c 0,0 0,-0.8 -0.6,-2.2 C 4.4,4.3 4.6,0.5 4.6,0.5 Z"
     class="st5"
     inkscape:connector-curvature="0"
     style="fill:#faea21;stroke:#1d1d1b;stroke-width:0.2;stroke-miterlimit:10;enable-background:new" /><g
     id="g1184"
     class="st2"
     style="enable-background:new">
	<path
   id="path1180"
   d="M 7.8,15.8 C 7.7,15.8 7.5,15.7 7.5,15.7 H 7.4 v -0.1 c 0,0 0.3,-1.6 0.5,-2.4 0,-0.2 0.1,-0.5 0.1,-0.6 0,0 -0.1,0 -0.1,0.1 -0.3,0.1 -0.5,0.7 -0.6,0.9 v 0.1 H 6.2 L 6.7,11.2 C 6.7,11.1 7.2,9 8.4,9 c 0.1,0 0.1,0 0.2,0 2.2,0.3 2.3,5.2 2.3,5.7 v 0.2 L 10.7,14.8 C 10.2,14.6 9.6,14.1 9.3,13.7 9,13.4 8.7,13.3 8.5,13.2 8.4,13.8 8,15.6 8,15.7 c 0,0 -0.1,0.1 -0.2,0.1 z"
   class="st6"
   inkscape:connector-curvature="0"
   style="fill:#ec1c24" />
	<path
   id="path1182"
   d="m 8.4,9.1 c 0,0 0.1,0 0.1,0 1.9,0.2 2.2,4.3 2.2,5.6 C 10.3,14.5 9.8,14.1 9.3,13.6 8.9,13.1 8.3,13 8.3,13 c 0,0 -0.4,2.5 -0.5,2.6 0,0 -0.1,0.1 -0.1,0.1 -0.1,0 -0.3,-0.1 -0.3,-0.1 0,0 0.4,-1.6 0.6,-2.3 0.1,-0.6 0.2,-0.8 0,-0.8 0,0 -0.1,0 -0.2,0.1 -0.4,0.2 -0.6,1 -0.6,1 H 6.3 l 0.5,-2.3 c 0,-0.1 0.5,-2.2 1.6,-2.2 m 0,-0.3 C 7.1,8.8 6.6,11 6.6,11.1 L 6.1,13.4 6,13.7 h 0.3 0.9 0.2 l 0.1,-0.2 c 0.1,-0.2 0.2,-0.6 0.4,-0.8 0,0.1 -0.1,0.3 -0.1,0.4 -0.2,0.8 -0.5,2.4 -0.5,2.4 v 0.2 l 0.2,0.1 c 0,0 0.2,0.1 0.3,0.1 0.3,0 0.3,-0.2 0.3,-0.2 0,-0.1 0.3,-1.4 0.4,-2.4 0.2,0.1 0.4,0.2 0.6,0.4 0.4,0.4 0.9,0.9 1.5,1.1 L 11,15 V 14.6 C 11,14 10.9,9 8.6,8.8 c -0.1,0 -0.2,0 -0.2,0 z"
   class="st3"
   inkscape:connector-curvature="0"
   style="fill:#f6e93f" />
</g></g>
</svg>
